attic/images-actors/ac_marble_black.svg

<?xml version="1.0" encoding="UTF-8" standalone="no"?>
<!-- Created with Inkscape (http://www.inkscape.org/) -->

<svg
   xmlns:dc="http://purl.org/dc/elements/1.1/"
   xmlns:cc="http://creativecommons.org/ns#"
   xmlns:rdf="http://www.w3.org/1999/02/22-rdf-syntax-ns#"
   xmlns:svg="http://www.w3.org/2000/svg"
   xmlns="http://www.w3.org/2000/svg"
   xmlns:sodipodi="http://sodipodi.sourceforge.net/DTD/sodipodi-0.dtd"
   xmlns:inkscape="http://www.inkscape.org/namespaces/inkscape"
   id="svg1397"
   sodipodi:version="0.32"
   inkscape:version="0.47 r22583"
   width="60.49998092651367"
   height="116.0000381469727"
   sodipodi:docname="ac_marble_black.svg"
   inkscape:output_extension="org.inkscape.output.svg.inkscape"
   version="1.1">
  <metadata
     id="metadata1402">
    <rdf:RDF>
      <cc:Work
         rdf:about="">
        <dc:format>image/svg+xml</dc:format>
        <dc:type
           rdf:resource="http://purl.org/dc/dcmitype/StillImage" />
        <dc:title></dc:title>
        <cc:license
           rdf:resource="http://creativecommons.org/licenses/publicdomain/" />
      </cc:Work>
      <cc:License
         rdf:about="http://creativecommons.org/licenses/publicdomain/">
        <cc:permits
           rdf:resource="http://creativecommons.org/ns#Reproduction" />
        <cc:permits
           rdf:resource="http://creativecommons.org/ns#Distribution" />
        <cc:permits
           rdf:resource="http://creativecommons.org/ns#DerivativeWorks" />
      </cc:License>
    </rdf:RDF>
  </metadata>
  <defs
     id="defs1400" />
  <sodipodi:namedview
     inkscape:cy="34.3382072828124"
     inkscape:cx="111.4833405"
     inkscape:zoom="2.56"
     inkscape:window-height="947"
     inkscape:window-width="1269"
     inkscape:pageshadow="2"
     inkscape:pageopacity="0.0"
     borderopacity="1.0"
     bordercolor="#666666"
     pagecolor="#ffffff"
     id="base"
     inkscape:window-x="0"
     inkscape:window-y="25"
     inkscape:current-layer="svg1397"
     showgrid="false"
     inkscape:window-maximized="1" />
  <g
     id="g1444"
     transform="scale(1.008333,0.9666669999999999)">
    <path
       style="fill:#fefefe"
       d="m 0,60 0,-60 30,0 30,0 0,60 0,60 -30,0 -30,0 0,-60 z"
       id="path1464" />
    <path
       style="fill:#d3d3d3"
       d="m 22.298549,102.04048 c -8.467102,-5.16269 -8.467102,-18.91827000000001 0,-24.08096400000001 3.830075,-2.335335 10.639342,-2.560114 14.654568,-0.48375999999999 9.206606,4.760921 9.206606,20.28756699999998 0,25.048484 -4.015226,2.07636 -10.824493,1.85158 -14.654568,-0.48376 z M 22.298549,42.040484 C 18.257496,39.57651 16,35.261017 16,30 16,21.719296 21.661929,16.01075 29.881966,16.003738 40.607133,15.994589 47.09753400000001,26.670174 42.393538,36.583108 39.10482,43.513567 29.148896,46.217386 22.298549,42.040484 z"
       id="path1462" />
    <path
       style="fill:#b4b4b4"
       d="m 22.641297,102.16259 c -4.346164,-2.95731699999999 -6.62727,-7.09840600000001 -6.634708,-12.044556 -0.019349,-12.867441 14.715933,-18.862179 23.867944,-9.71016800000001 C 43.231662,83.76499499999998 43.5,84.47495399999999 43.5,90 c 0,5.540852 -0.262515,6.22918199999999 -3.678461,9.64512799999999 C 36.684608,102.78206 35.359657,103.38131 30.821539,103.71568 c -4.085442,0.30102 -5.985564,-0.05973 -8.180242,-1.55309 z M 24.5,43.094876 c -1.1,-0.487891 -3.35,-2.313378 -5,-4.056638 -2.638289,-2.787408 -3,-3.883058 -3,-9.087234 0,-5.509519 0.259793,-6.177464 3.766667,-9.684337 C 23.771397,16.761936 24.443815,16.5 29.936103,16.5 34.852236,16.5 36.28609,16.91787 38.51445,19 45.752698,25.763256 45.796303,34.197032 38.62764700000001,40.893657 35.836025,43.50146 28.12535,44.702856 24.5,43.094876 z"
       id="path1460" />
    <path
       style="fill:#8e8e8e"
       d="M 24.5,103.04051 C 23.4,102.58252 21.15,100.7815 19.5,99.038238 16.861711,96.25082999999999 16.5,95.15518 16.5,89.95100399999998 16.5,84.473703 16.771936,83.76139799999998 20.15426,80.379074 26.871433,73.661901 36.971552,74.98468699999999 42.005402,83.24085999999998 48.622251,94.09335799999999 36.349784,107.97425 24.5,103.04051 z M 23.24086,42.005402 C 16.423562,37.848845 14.117339,29.600072 17.994598,23.24086 c 5.752054,-9.434121 18.25875,-9.434121 24.01080400000001,0 C 49.132494,34.930224 34.930224,49.132494 23.24086,42.005402 z"
       id="path1458" />
    <path
       style="fill:#707070"
       d="m 23.24086,102.0054 c -9.434121,-5.75205199999999 -9.434121,-18.25874800000001 0,-24.010802 C 32.010308,72.647801 44.002444,79.873761 43.994708,90.5 c -0.004789,6.578025 -7.176642,13.49252 -13.994708,13.49252 -1.925,0 -4.966613,-0.8942 -6.75914,-1.98712 z M 38.428571,98.428571 C 40.126894,96.730249 40.503237,95 39.174314,95 38.720187,95 37.291745,96.125 36,97.5 c -1.863284,1.983375 -2.017392,2.5 -0.745743,2.5 0.88158700000002,0 2.310029,-0.70714300000002 3.17431400000001,-1.571429 z M 24,82.416667 C 24,80.65073999999998 21.847241,80.95827699999999 21.229167,82.8125 21.011458,83.465625 21.545833,84 22.416667,84 23.2875,84 24,83.28749999999999 24,82.416667 z M 23.24086,42.063947 c -9.436762,-5.923179 -9.436762,-18.315685 0,-24.069349 C 34.41580600000001,11.18115 48.396494,24.335102 42.302363,35.92891500000001 38.505098,43.153044 29.561873,46.031461 23.24086,42.063947 z"
       id="path1456" />
    <path
       style="fill:#5f5f5f"
       d="m 23.24086,102.06395 c -9.436762,-5.92318200000001 -9.436762,-18.31568800000001 0,-24.06935200000001 C 34.41580600000001,71.18115 48.396494,84.335102 42.302363,95.928915 38.505098,103.15304 29.561873,106.03146 23.24086,102.06395 z M 38.545455,98.545455 C 40.872177,96.218732 41.870575,92.980467 40.25,93.016827 c -0.4125,0.009255 -2.51659,1.80925499999998 -4.675755,4 C 32.02239,100.62063 31.860044,101 33.869699,101 35.09136500000001,101 37.195455,99.89545499999998 38.545455,98.545455 z M 24.677102,83.39907499999999 C 25.308424,81.753876 23.222647,79.744363 21.797746,80.625 21.358986,80.896169 21,81.991476 21,83.05901699999998 21,85.398812 23.81001,85.658681 24.677102,83.39907499999999 z M 24.071085,42.302363 C 11.736427,35.818817 14.829444,18.058706 28.586575,16.374401 35.895772,15.479525 42.697057,21.002389 43.625599,28.586575 44.902795,39.01849700000001 33.30279500000001,47.154886 24.071085,42.302363 z M 38.171259,38.345012 C 39.898403,36.781969 40.691715,34 39.41029300000001,34 38.641967,34 35.076446,38.276646 35.033269,39.25 c -0.054132,1.220313 1.184178,0.863188 3.13799,-0.904988 z M 24,22.5 C 24,21.675 23.325,21 22.5,21 20.938426,21 20.516033,22.1827 21.666667,23.333333 22.8173,24.483967 24,24.061574 24,22.5 z"
       id="path1454" />
    <path
       style="fill:#4f4f4f"
       d="M 24.071085,102.30236 C 11.736427,95.81881699999999 14.829444,78.058706 28.586575,76.374401 c 7.309197,-0.89487600000001 14.110482,4.62798799999999 15.039024,12.21217399999999 1.277196,10.431922 -10.32280399999999,18.568315 -19.554514,13.715785 z M 37.906009,99.25 C 40.895941,96.450973 42.909025,92 41.185035,92 39.987409,92 32,99.928808 32,101.11765 c 0,1.77444 3.043638,0.81196 5.906009,-1.86765 z M 25,83.05901699999998 C 25,80.366331 23.108264,79.463164 21.285714,81.28571399999998 19.463164,83.108264 20.366331,85 23.059017,85 24.313661,85 25,84.31366099999999 25,83.05901699999998 z M 24.071085,42.302363 C 18.890438,39.579226 16.5,35.694969 16.5,30 c 0,-8.33232 6.871251,-14.610214 14.913425,-13.625599 5.302144,0.649149 8.708887,3.424363 11.021643,8.978494 1.913423,4.595126 1.913423,4.69908399999999 0,9.29421000000001 C 41.37078000000001,37.203013 39.336041,40.160969 37.913425,41.220342 c -3.757533,2.798103 -9.69465900000001,3.262193 -13.84234,1.082021 z M 38.54545500000001,38.545455 C 41.109521,35.981388 41.591349,34.483508 40.140508,33.586839 39.184591,32.99605 34,38.403538 34,39.99134200000001 34,41.730966 35.99433,41.096579 38.545455,38.545455 z M 24,23.059017 C 24,20.774646 22.423377,19.505945 21.480485,21.031575 20.640454,22.390774 21.618894,25 22.968615,25 23.535877,25 24,24.126558 24,23.059017 z"
       id="path1452" />
    <path
       style="fill:#404040"
       d="M 24.415186,102.63083 C 15.259276,98.489288 13.461142,85.99698399999998 21.096188,79.572517 29.157488,72.78937999999999 41.488586,77.12993299999999 43.421055,87.43088099999998 44.260469,91.905341 41.300295,99.10190799999999 37.631638,101.5057 c -3.500373,2.29354 -9.503577,2.80459 -13.216452,1.12513 z M 38.6,98.59999999999999 C 40.78663800000001,96.413362 42,94.237031 42,92.50163299999998 42,89.89799499999999 41.810635,89.991026 36.605882,95.151633 33.63911800000001,98.093235 31.415675,100.8375 31.664899,101.25 c 0.98282,1.6267 3.694615,0.59049 6.935101,-2.65000000000001 z M 25.444227,84.090242 C 26.400152,82.54352299999999 24.880206,80 23,80 21.119794,80 19.599848,82.54352299999999 20.555773,84.090242 20.865016,84.590609 21.964919,85 23,85 c 1.035081,0 2.134984,-0.409391 2.444227,-0.909758 z m -1.029041,-41.511654 C 15.278033,38.600269 13.45995,25.997987 21.096188,19.572517 c 4.297521,-3.616126 8.771431,-4.167012 14.230429,-1.752237 10.536736,4.660899 10.75558,19.515259 0.357066,24.236341 -4.928487,2.237607 -7.09738,2.338072 -11.268497,0.52196700000001 z M 38.545455,38.545455 C 40.504349,36.58656 42.019843,32 40.708208,32 40.547722,32 38.429029,34.025 36,36.5 32.045778,40.529059 31.819438,41 33.837247,41 c 1.239514,0 3.358208,-1.104545 4.708208,-2.454545 z M 25,23.059017 C 25,20.537819 23.285418,19.518235 21.515636,20.987023 19.694858,22.498135 20.686977,25 23.106989,25 24.314147,25 25,24.296767 25,23.059017 z"
       id="path1450" />
    <path
       style="fill:#2d2d2d"
       d="M 25.5,102.79377 C 12.996517,98.42449899999998 13.366947,80.666809 26.040784,76.869635 c 3.256253,-0.97559700000001 4.641983,-0.8806 8.467836,0.58050699999998 C 39.315265,79.28581599999999 41.479597,81.698665 42.964812,86.877305 43.61625,89.148739 43.530115,90 42.648839,90 41.15272800000001,90 31,99.56764099999999 31,100.97753 31,101.53989 31.476558,102 32.059017,102 c 0.582459,0 0.780902,0.45 0.440983,1 -0.762814,1.23426 -3.072506,1.16621 -7,-0.20623 z M 25.802469,82.61964799999998 C 25.402384,79.815926 20.697621,79.616061 20.165302,82.38017299999998 19.727529,84.653343 21.519533,85.938406 24.163167,85.24707999999999 c 1.295341,-0.338739 1.841077,-1.21343200000001 1.639302,-2.62743200000001 z M 41.085598,96.5 C 41.189728,94.605777 42.856357,91.41615099999998 42.914402,93 42.944637,93.825 42.533156,95.17499999999998 42,96 c -0.533156,0.825 -0.944637,1.04999999999998 -0.914402,0.5 z M 24.206851,42.007612 c -3.371098,-1.529988 -4.723253,-2.92078699999999 -6.295754,-6.475687 -5.127237,-11.59097 5.059782,-22.488087 16.823004,-17.995671 5.450537,2.081579 8.25696,6.262753 8.262161,12.309454 0.004898,5.693766 -2.49740299999999,9.734386 -7.540142,12.175534 -5.022105,2.431159 -5.864792,2.430138 -11.249269,-0.01363 z M 38.725778,38.647287 C 39.949955,37.466279 41.244768,34.925 41.603139,33 l 0.651584,-3.5 -5.581173,5.420225 c -3.069646,2.98112400000001 -5.339088,5.811929 -5.043205,6.290678 0.783565,1.267834 4.525227,-0.084047 7.095433,-2.563616 z M 24.76239,24.75 c 0.615018,-0.763216 0.668945,-2.143254 0.138479,-3.543765 C 24.16941,19.275071 23.713372,19.083031 22.016034,19.991419 19.736942,21.211152 19.428526,23.028526 21.2,24.8 c 1.523195,1.523195 2.303498,1.512243 3.56239,-0.05 z"
       id="path1448" />
    <path
       style="fill:#0e0e0e"
       d="m 19.607038,98.11827499999999 c -3.295561,-3.641553 -3.914525,-8.63472399999999 -1.692947,-13.656969 1.618221,-3.658255 2.886653,-4.92797399999999 6.53533,-6.541957 C 28.230797,76.246666 29.618641,76.08949499999998 32.871918,76.965511 c 5.45248,1.4682 6.516331,3.10852299999998 5.821427,8.97589799999999 -0.731613,6.17732600000001 -1.91742399999999,8.057529 -7.182506,11.388469 C 26.561665,100.46096 22.000524,100.76305 19.607038,98.11827499999999 z M 26,83.05901699999998 C 26,81.44147599999999 25.5593,79.84566599999999 25.020667,79.51277299999999 23.225964,78.403585 20,80.988133 20,83.535184 20,85.607202 20.478086,86 23,86 25.653289,86 26,85.660109 26,83.05901699999998 z M 21.559085,39.91773400000001 C 16.177616,35.192741 15.18476,28.675797 18.878641,22.323729 c 0.942268,-1.620344 1.063933,-1.530052 1.09095,0.80964 0.020327,1.760312 0.681291,2.803578 1.993641,3.146765 2.469943,0.645905 4.291179,-1.465383 3.860297,-4.475092 C 25.56812,20.021014 24.92918099999999,19.553629 22.99676499999999,19.737263 20.783134,19.947621 20.70681099999999,19.852257 22.323729,18.896312 c 3.511918,-2.076295 7.63794899999999,-2.745678 11.074816,-1.796714 3.426461,0.946092 9.616334,6.87783899999999 9.58490000000001,9.185198 -0.009105,0.66836199999999 -2.93410500000001,4.127904 -6.5,7.68787000000001 C 32.91755,37.532633 30,41.020133 30,41.722666 c 0,2.35504 -4.89513,1.308308 -8.440915,-1.80493199999999 z"
       id="path1446" />
  </g>
</svg>

<svg height="116.000038" width="60.499981" xmlns="http://www.w3.org/2000/svg"><g transform="scale(1.008333 .966667)"><path d="m0 60v-60h30 30v60 60h-30-30z" fill="#fefefe"/><path d="m22.298549 102.04048c-8.467102-5.16269-8.467102-18.91827 0-24.080964 3.830075-2.335335 10.639342-2.560114 14.654568-.48376 9.206606 4.760921 9.206606 20.287567 0 25.048484-4.015226 2.07636-10.824493 1.85158-14.654568-.48376zm0-59.999996c-4.041053-2.463974-6.298549-6.779467-6.298549-12.040484 0-8.280704 5.661929-13.98925 13.881966-13.996262 10.725167-.009149 17.215568 10.666436 12.511572 20.57937-3.288718 6.930459-13.244642 9.634278-20.094989 5.457376z" fill="#d3d3d3"/><path d="m22.641297 102.16259c-4.346164-2.957317-6.62727-7.098406-6.634708-12.044556-.019349-12.867441 14.715933-18.862179 23.867944-9.710168 3.357129 3.357129 3.625467 4.067088 3.625467 9.592134 0 5.540852-.262515 6.229182-3.678461 9.645128-3.136931 3.136932-4.461882 3.736182-9 4.070552-4.085442.30102-5.985564-.05973-8.180242-1.55309zm1.858703-59.067714c-1.1-.487891-3.35-2.313378-5-4.056638-2.638289-2.787408-3-3.883058-3-9.087234 0-5.509519.259793-6.177464 3.766667-9.684337 3.50473-3.504731 4.177148-3.766667 9.669436-3.766667 4.916133 0 6.349987.41787 8.578347 2.5 7.238248 6.763256 7.281853 15.197032.113197 21.893657-2.791622 2.607803-10.502297 3.809199-14.127647 2.201219z" fill="#b4b4b4"/><path d="m24.5 103.04051c-1.1-.45799-3.35-2.25901-5-4.002272-2.638289-2.787408-3-3.883058-3-9.087234 0-5.477301.271936-6.189606 3.65426-9.57193 6.717173-6.717173 16.817292-5.394387 21.851142 2.861786 6.616849 10.852498-5.655618 24.73339-17.505402 19.79965zm-1.25914-61.035108c-6.817298-4.156557-9.123521-12.40533-5.246262-18.764542 5.752054-9.434121 18.25875-9.434121 24.010804 0 7.127092 11.689364-7.075178 25.891634-18.764542 18.764542z" fill="#8e8e8e"/><path d="m23.24086 102.0054c-9.434121-5.752052-9.434121-18.258748 0-24.010802 8.769448-5.346797 20.761584 1.879163 20.753848 12.505402-.004789 6.578025-7.176642 13.49252-13.994708 13.49252-1.925 0-4.966613-.8942-6.75914-1.98712zm15.187711-3.576829c1.698323-1.698322 2.074666-3.428571.745743-3.428571-.454127 0-1.882569 1.125-3.174314 2.5-1.863284 1.983375-2.017392 2.5-.745743 2.5.881587 0 2.310029-.707143 3.174314-1.571429zm-14.428571-16.011904c0-1.765927-2.152759-1.45839-2.770833.395833-.217709.653125.316666 1.1875 1.1875 1.1875.870833 0 1.583333-.7125 1.583333-1.583333zm-.75914-40.35272c-9.436762-5.923179-9.436762-18.315685 0-24.069349 11.174946-6.813448 25.155634 6.340504 19.061503 17.934317-3.797265 7.224129-12.74049 10.102546-19.061503 6.135032z" fill="#707070"/><path d="m23.24086 102.06395c-9.436762-5.923182-9.436762-18.315688 0-24.069352 11.174946-6.813448 25.155634 6.340504 19.061503 17.934317-3.797265 7.224125-12.74049 10.102545-19.061503 6.135035zm15.304595-3.518495c2.326722-2.326723 3.32512-5.564988 1.704545-5.528628-.4125.009255-2.51659 1.809255-4.675755 4-3.551855 3.603803-3.714201 3.983173-1.704546 3.983173 1.221666 0 3.325756-1.104545 4.675756-2.454545zm-13.868353-15.14638c.631322-1.645199-1.454455-3.654712-2.879356-2.774075-.43876.271169-.797746 1.366476-.797746 2.434017 0 2.339795 2.81001 2.599664 3.677102.340058zm-.606017-41.096712c-12.334658-6.483546-9.241641-24.243657 4.51549-25.927962 7.309197-.894876 14.110482 4.627988 15.039024 12.212174 1.277196 10.431922-10.322804 18.568311-19.554514 13.715788zm14.100174-3.957351c1.727144-1.563043 2.520456-4.345012 1.239034-4.345012-.768326 0-4.333847 4.276646-4.377024 5.25-.054132 1.220313 1.184178.863188 3.13799-.904988zm-14.171259-15.845012c0-.825-.675-1.5-1.5-1.5-1.561574 0-1.983967 1.1827-.833333 2.333333 1.150633 1.150634 2.333333.728241 2.333333-.833333z" fill="#5f5f5f"/><path d="m24.071085 102.30236c-12.334658-6.483543-9.241641-24.243654 4.51549-25.927959 7.309197-.894876 14.110482 4.627988 15.039024 12.212174 1.277196 10.431922-10.322804 18.568315-19.554514 13.715785zm13.834924-3.05236c2.989932-2.799027 5.003016-7.25 3.279026-7.25-1.197626 0-9.185035 7.928808-9.185035 9.11765 0 1.77444 3.043638.81196 5.906009-1.86765zm-12.906009-16.190983c0-2.692686-1.891736-3.595853-3.714286-1.773303s-.919383 3.714286 1.773303 3.714286c1.254644 0 1.940983-.686339 1.940983-1.940983zm-.928915-40.756654c-5.180647-2.723137-7.571085-6.607394-7.571085-12.302363 0-8.33232 6.871251-14.610214 14.913425-13.625599 5.302144.649149 8.708887 3.424363 11.021643 8.978494 1.913423 4.595126 1.913423 4.699084 0 9.29421-1.064288 2.555908-3.099027 5.513864-4.521643 6.573237-3.757533 2.798103-9.694659 3.262193-13.84234 1.082021zm14.47437-3.756908c2.564066-2.564067 3.045894-4.061947 1.595053-4.958616-.955917-.590789-6.140508 4.816699-6.140508 6.404503 0 1.739624 1.99433 1.105237 4.545455-1.445887zm-14.545455-15.486438c0-2.284371-1.576623-3.553072-2.519515-2.027442-.840031 1.359199.138409 3.968425 1.48813 3.968425.567262 0 1.031385-.873442 1.031385-1.940983z" fill="#4f4f4f"/><path d="m24.415186 102.63083c-9.15591-4.141542-10.954044-16.633846-3.318998-23.058313 8.0613-6.783137 20.392398-2.442584 22.324867 7.858364.839414 4.47446-2.12076 11.671027-5.789417 14.074819-3.500373 2.29354-9.503577 2.80459-13.216452 1.12513zm14.184814-4.03083c2.186638-2.186638 3.4-4.362969 3.4-6.098367 0-2.603638-.189365-2.510607-5.394118 2.65-2.966764 2.941602-5.190207 5.685867-4.940983 6.098367.98282 1.6267 3.694615.59049 6.935101-2.65zm-13.155773-14.509758c.955925-1.546719-.564021-4.090242-2.444227-4.090242s-3.400152 2.543523-2.444227 4.090242c.309243.500367 1.409146.909758 2.444227.909758s2.134984-.409391 2.444227-.909758zm-1.029041-41.511654c-9.137153-3.978319-10.955236-16.580601-3.318998-23.006071 4.297521-3.616126 8.771431-4.167012 14.230429-1.752237 10.536736 4.660899 10.75558 19.515259.357066 24.236341-4.928487 2.237607-7.09738 2.338072-11.268497.521967zm14.130269-4.033133c1.958894-1.958895 3.474388-6.545455 2.162753-6.545455-.160486 0-2.279179 2.025-4.708208 4.5-3.954222 4.029059-4.180562 4.5-2.162753 4.5 1.239514 0 3.358208-1.104545 4.708208-2.454545zm-13.545455-15.486438c0-2.521198-1.714582-3.540782-3.484364-2.071994-1.820778 1.511112-.828659 4.012977 1.591353 4.012977 1.207158 0 1.893011-.703233 1.893011-1.940983z" fill="#404040"/><path d="m25.5 102.79377c-12.503483-4.369271-12.133053-22.126961.540784-25.924135 3.256253-.975597 4.641983-.8806 8.467836.580507 4.806645 1.835674 6.970977 4.248523 8.456192 9.427163.651438 2.271434.565303 3.122695-.315973 3.122695-1.496111 0-11.648839 9.567641-11.648839 10.97753 0 .56236.476558 1.02247 1.059017 1.02247s.780902.45.440983 1c-.762814 1.23426-3.072506 1.16621-7-.20623zm.302469-20.174122c-.400085-2.803722-5.104848-3.003587-5.637167-.239475-.437773 2.27317 1.354231 3.558233 3.997865 2.866907 1.295341-.338739 1.841077-1.213432 1.639302-2.627432zm15.283129 13.880352c.10413-1.894223 1.770759-5.083849 1.828804-3.5.030235.825-.381246 2.175-.914402 3s-.944637 1.05-.914402.5zm-16.878747-54.492388c-3.371098-1.529988-4.723253-2.920787-6.295754-6.475687-5.127237-11.59097 5.059782-22.488087 16.823004-17.995671 5.450537 2.081579 8.25696 6.262753 8.262161 12.309454.004898 5.693766-2.497403 9.734386-7.540142 12.175534-5.022105 2.431159-5.864792 2.430138-11.249269-.01363zm14.518927-3.360325c1.224177-1.181008 2.51899-3.722287 2.877361-5.647287l.651584-3.5-5.581173 5.420225c-3.069646 2.981124-5.339088 5.811929-5.043205 6.290678.783565 1.267834 4.525227-.084047 7.095433-2.563616zm-13.963388-13.897287c.615018-.763216.668945-2.143254.138479-3.543765-.731459-1.931164-1.187497-2.123204-2.884835-1.214816-2.279092 1.219733-2.587508 3.037107-.816034 4.808581 1.523195 1.523195 2.303498 1.512243 3.56239-.05z" fill="#2d2d2d"/><path d="m19.607038 98.118275c-3.295561-3.641553-3.914525-8.634724-1.692947-13.656969 1.618221-3.658255 2.886653-4.927974 6.53533-6.541957 3.781376-1.672683 5.16922-1.829854 8.422497-.953838 5.45248 1.4682 6.516331 3.108523 5.821427 8.975898-.731613 6.177326-1.917424 8.057529-7.182506 11.388469-4.949174 3.131082-9.510315 3.433172-11.903801.788397zm6.392962-15.059258c0-1.617541-.4407-3.213351-.979333-3.546244-1.794703-1.109188-5.020667 1.47536-5.020667 4.022411 0 2.072018.478086 2.464816 3 2.464816 2.653289 0 3-.339891 3-2.940983zm-4.440915-43.141283c-5.381469-4.724993-6.374325-11.241937-2.680444-17.594005.942268-1.620344 1.063933-1.530052 1.09095.80964.020327 1.760312.681291 2.803578 1.993641 3.146765 2.469943.645905 4.291179-1.465383 3.860297-4.475092-.255409-1.784028-.894348-2.251413-2.826764-2.067779-2.213631.210358-2.289954.114994-.673036-.840951 3.511918-2.076295 7.637949-2.745678 11.074816-1.796714 3.426461.946092 9.616334 6.877839 9.5849 9.185198-.009105.668362-2.934105 4.127904-6.5 7.68787-3.565895 3.559967-6.483445 7.047467-6.483445 7.75 0 2.35504-4.89513 1.308308-8.440915-1.804932z" fill="#0e0e0e"/></g></svg>
